svg/furkot/freepik/bar.svg

<svg viewBox="0 0 512 512" xmlns="http://www.w3.org/2000/svg"><path d="m373.623 482.765v-217.6l152.952-152.969h-222.669c.085-3.294.171-6.57.171-9.933 0-34.969-8.687-68.829-25.174-97.792l-2.56-4.471h-246.22l-2.56 4.471c-16.487 28.997-25.259 62.823-25.259 97.792 0 88.696 56.047 162.27 128.853 174.797v218.761c-43.622 1.775-76.1 8.397-76.1 16.298 0 9.268 44.305 16.76 98.936 16.76 54.647 0 98.918-7.492 98.918-16.76 0-7.901-32.444-14.54-76.066-16.298v-219.051c34.167-6.297 64.597-26.129 87.108-54.596l42.991 43.008v217.6c-36.25 5.427-43.947 10.069-44.8 10.632l-2.782 1.827v17.459h161.809v-17.459l-2.73-1.827c-.888-.58-8.653-5.222-44.818-10.649zm-220.381-221.491c-73.438 0-133.172-71.305-133.172-158.993 0-30.14 7.066-59.239 20.378-84.566h225.502c13.38 25.293 20.463 54.426 20.463 84.566 0 87.688-59.734 158.993-133.171 158.993zm208.23 1.399h-42.394v-2.526l-47.872-47.838c16.879-24.798 28.177-54.971 31.693-87.927h194.338l-135.765 135.765z"/><path d="m265.387 107.759h-222.908c-9.813 17.34 2.714 140.971 118.443 140.971 102.024 0 114.295-123.631 104.465-140.971z"/></svg>

<svg xmlns="http://www.w3.org/2000/svg" viewBox="0 0 512 512"><path d="M373.623 482.765V265.165L526.575 112.196H303.906C303.991 108.902 304.077 105.626 304.077 102.263 304.077 67.294 295.39 33.434 278.903 4.471L276.343 0H30.123L27.563 4.471C11.076 33.468 2.304 67.294 2.304 102.263 2.304 190.959 58.351 264.533 131.157 277.06V495.821C87.535 497.596 55.057 504.218 55.057 512.119 55.057 521.387 99.362 528.879 153.993 528.879 208.64 528.879 252.911 521.387 252.911 512.119 252.911 504.218 220.467 497.579 176.845 495.821V276.77C211.012 270.473 241.442 250.641 263.953 222.174L306.944 265.182V482.782C270.694 488.209 262.997 492.851 262.144 493.414L259.362 495.241V512.7H421.171V495.241L418.441 493.414C417.553 492.834 409.788 488.192 373.623 482.765ZM153.242 261.274C79.804 261.274 20.07 189.969 20.07 102.281 20.07 72.141 27.136 43.042 40.448 17.715H265.95C279.33 43.008 286.413 72.141 286.413 102.281 286.413 189.969 226.679 261.274 153.242 261.274ZM361.472 262.673H319.078V260.147L271.206 212.309C288.085 187.511 299.383 157.338 302.899 124.382H497.237L361.472 260.147V262.673Z"/><path d="M265.387 107.759H42.479C32.666 125.099 45.193 248.73 160.922 248.73 262.946 248.73 275.217 125.099 265.387 107.759Z"/></svg>
